X: 1
T: Syrtos Kritikos [Dm]
T: Ta mavra rukha
R: syrtos
Z: 1998 by John Chambers <jc@trillian.mit.edu> http://trillian.mit.edu/~jc/music/
L: 1/8
M: 4/4
K: Ddor
P: Instr.
|: "Gm"z~G2F ~G2FE | "Dm"z~F2E ~F2ED | "C"z~G2E ~F2EC |1 "Dm"DEFG "G(m)"~AGG2 :|2 "Dm"D>E DC B,CD2 :|
P: Vocal
| D8- | D8 |: "Gm"zG2F G2FE | "Dm"zF2E F2ED | "C"zG2E F2EE |1 "Dm"DEFG "Gm"AGG2 :|2 "Dm"D3C B,CD2 :|
